X:79
%%etbk:tnset id:27,pos:2,rep:3
%%etbk:site1 http://www.thesession.org/tunes/display/102
T: Johnny's Wedding
T: Sean Frank's
M: 4/4
L: 1/8
R: reel
K: Edor
|: EF |\
GEBE GEBG | FDAD FDAF | GEBE GEBc | AGFG E2 EF |
G/F/E BE G/F/E BE | ABAG FADF | GBGD GBdB | AGFD E2 :|
|: EF |\
G2 GF GBdB | A2 AG FADA | Bded e2 g/f/e | fedf e2 gf |
e2 ed BcdB | ABAG FDAD | G2 GF GBdB | AGFG E2 :|

